tools/download-figma-icons/icons/outlined-medium/energy-plug.svg

<svg width="25" height="24" viewBox="0 0 25 24" fill="none" xmlns="http://www.w3.org/2000/svg">
<path fill-rule="evenodd" clip-rule="evenodd" d="M8.14468 19.786L8.22123 19.7094L8.31857 19.7568C8.71349 19.949 9.12365 20.1136 9.54438 20.2487C10.9302 20.6939 12.4591 20.7631 13.9969 20.4596C15.4407 20.1747 16.8291 19.4688 18.0321 18.4201C18.294 18.1918 18.4997 17.9923 18.9197 17.562L19.0069 17.4727C19.1211 17.3557 19.1914 17.2842 19.2615 17.2142L19.6967 16.779L20.601 15.8746C21.6219 14.8537 21.6824 13.1984 20.7497 12.105L20.6587 11.9983L20.7579 11.899L20.7667 11.8903L21.5682 11.0887L23.1713 9.48568L23.1842 9.4727L23.1908 9.46616L23.2109 9.44601C24.2888 8.36816 24.2885 6.59498 23.2099 5.51639C22.1312 4.43762 20.3579 4.43762 19.2792 5.5164L18.2417 6.55392L17.2041 7.59146L16.8337 7.96193L16.7263 8.06934L16.6189 7.96193L16.3138 7.65688L15.9496 7.29267L16.057 7.18526L18.4639 4.77837L18.4837 4.75854L18.5025 4.73971C19.5813 3.66097 19.5813 1.8878 18.5025 0.809055C17.4238 -0.269694 15.6506 -0.269686 14.5719 0.809085L12.4968 2.88412L12.0207 3.36028L11.9139 3.26921C10.8205 2.33643 9.16515 2.39694 8.14419 3.41791L5.94815 5.61394C4.92107 6.64102 4.15733 7.92254 3.73158 9.33032C3.30749 10.7326 3.25967 12.2698 3.5858 13.7853C3.72467 14.4306 3.94682 15.0655 4.24669 15.6774L4.29447 15.7749L4.2177 15.8517L3.99865 16.0707C2.27687 17.7925 1.93252 18.1369 1.18119 18.8882L0.808961 19.2604C-0.269696 20.339 -0.269657 22.1123 0.809098 23.191C1.88782 24.2697 3.66099 24.2697 4.73975 23.1909L5.38427 22.5464L6.0288 21.9019L6.67338 21.2573L8.14468 19.786ZM10.0057 18.8126C9.28938 18.5825 8.60091 18.2478 7.98101 17.8164C7.18958 18.6078 6.39817 19.3993 5.60675 20.1907C4.96219 20.8352 4.31765 21.4798 3.67311 22.1243C3.18344 22.614 2.36535 22.614 1.87568 22.1243C1.38602 21.6347 1.38602 20.8166 1.87568 20.3269L2.24778 19.9548C3.18696 19.0157 4.12612 18.0765 5.06527 17.1373C5.44053 16.7621 5.81578 16.3868 6.19103 16.0116C5.65601 15.2456 5.25727 14.3826 5.06046 13.468C4.7983 12.2497 4.81315 10.9648 5.17542 9.76697C5.52639 8.60646 6.15665 7.53867 7.01476 6.68056L9.2108 4.48452C9.70046 3.99486 10.5186 3.99486 11.0082 4.48452C11.3451 4.82143 11.682 5.15834 12.0189 5.49525L13.5634 3.95074L15.6385 1.87567C16.1281 1.38601 16.9463 1.38601 17.4359 1.87567C17.9256 2.36534 17.9256 3.18343 17.4359 3.6731L17.3973 3.71173L13.8164 7.29267L15.2472 8.72351C15.7402 9.21653 16.2333 9.70954 16.7263 10.2026C17.2411 9.68773 17.7559 9.1729 18.2708 8.65807L20.3458 6.58299C20.8355 6.09332 21.6536 6.09332 22.1432 6.58301C22.6329 7.07267 22.6329 7.89077 22.1432 8.38043L22.1046 8.41906C21.3031 9.22059 20.5016 10.0221 19.7001 10.8237L18.5237 12L19.5343 13.0107C20.024 13.5003 20.024 14.3184 19.5344 14.808C18.9285 15.4139 18.482 15.8604 18.1949 16.1476C17.8149 16.5275 17.4463 16.9296 17.0409 17.2831C16.0918 18.1104 14.9477 18.7345 13.7049 18.9797C12.4815 19.2211 11.1995 19.1961 10.0057 18.8126Z" fill="black"/>
</svg>

<svg width="25" height="24" viewBox="0 0 25 24" fill="none" xmlns="http://www.w3.org/2000/svg"><path fill-rule="evenodd" clip-rule="evenodd" d="m8.145 19.786.076-.077.098.048a9.3 9.3 0 0 0 1.225.492c1.386.445 2.915.514 4.453.21 1.444-.284 2.832-.99 4.035-2.039.262-.228.468-.428.888-.858l.087-.09c.114-.116.184-.188.255-.258l.435-.435.904-.904a2.793 2.793 0 0 0 .149-3.77l-.091-.107.099-.099.009-.009.801-.801 1.603-1.603.013-.013.007-.007.02-.02a2.791 2.791 0 0 0-.001-3.93 2.792 2.792 0 0 0-3.93 0l-1.038 1.038-1.038 1.037-.37.37-.108.108-.107-.107-.305-.305-.364-.364.107-.108 2.407-2.407.02-.02.018-.018a2.791 2.791 0 0 0 0-3.93 2.791 2.791 0 0 0-3.93 0l-2.075 2.074-.476.476-.107-.09a2.793 2.793 0 0 0-3.77.148L5.948 5.614A8.906 8.906 0 0 0 3.732 9.33c-.425 1.403-.472 2.94-.146 4.455.139.646.36 1.28.66 1.892l.048.098-.076.077-.22.219-2.817 2.817-.372.372a2.792 2.792 0 0 0 0 3.931 2.792 2.792 0 0 0 3.93 0l.645-.645.645-.644.644-.645 1.472-1.471Zm1.86-.973a7.646 7.646 0 0 1-2.024-.997l-2.374 2.375-1.934 1.933c-.49.49-1.308.49-1.797 0a1.283 1.283 0 0 1 0-1.797l.372-.372 2.817-2.818 1.126-1.125a7.06 7.06 0 0 1-1.13-2.544c-.263-1.218-.248-2.503.114-3.701a7.398 7.398 0 0 1 1.84-3.086L9.21 4.485c.49-.49 1.308-.49 1.797 0l1.01 1.01 1.545-1.544 2.075-2.075c.49-.49 1.308-.49 1.798 0s.49 1.307 0 1.797l-.039.039-3.58 3.58 1.43 1.432 1.48 1.479 1.544-1.545 2.075-2.075c.49-.49 1.308-.49 1.797 0 .49.49.49 1.308 0 1.797l-.038.04c-.802.8-1.603 1.602-2.405 2.404L18.524 12l1.01 1.01c.49.49.49 1.308 0 1.798l-1.34 1.34c-.38.38-.748.782-1.153 1.135-.95.827-2.093 1.451-3.336 1.697-1.223.241-2.505.216-3.7-.167Z" fill="currentColor"/></svg>
